X:29
T:Debtors Salutations. BC.29
M:3/4
L:1/8
Q:100
S:Benjamin Cooke MS.circa 1770, F.Kidson Coll.
R:Air
O:England
A:x
D:John Bagnall
K:G
Bd |\
 c2 (BA) GF | G2 A2 Bd | c2  BA  GF | G4 Bd |
 c2 (BA) GF | G2 A2 Bd | c2 (BA) GF | G4 cB |
 e2  ee  cB | A2 A2 BA | G2  E2  FG | D4 AB |
 c2 (ed) cB | A2 A2 BA | G2 (AB) cA | G4 |]

